<?xml version="1.0" encoding="UTF-8"?>
<map version="1.10" tiledversion="1.12.1" orientation="orthogonal" renderorder="right-down" width="9" height="12" tilewidth="16" tileheight="16" infinite="0" nextlayerid="7" nextobjectid="8">
 <tileset firstgid="1" source="sprites.tsx"/>
 <tileset firstgid="18849" source="../../../../../../../Users/triga/hi_res_interior_general_tileset_by_akizakura16_d9qifn2.tsx"/>
 <layer id="1" name="Sol" width="9" height="12">
  <data encoding="csv">
12310,12310,12310,12310,12310,12310,12310,12310,12310,
12310,12310,12310,12310,12310,12310,12310,12310,12310,
12310,12310,12310,12310,12310,12310,12310,12310,12310,
12310,12310,12310,12310,12310,12310,12310,12310,12310,
12310,12310,12310,12310,12310,12310,12310,12310,12310,
12310,12310,12310,12310,12310,12310,12310,12310,12310,
12310,12310,12310,12310,12310,12310,12310,12310,12310,
12310,12310,12310,12310,12310,12310,12310,12310,12310,
12310,12310,12310,12310,12310,12310,12310,12310,12310,
12310,12310,12310,12310,12310,12310,12310,12310,12310,
12310,12310,12310,12310,12310,12310,12310,12310,12310,
12310,12310,12310,12310,12310,12310,12310,12310,12310
</data>
 </layer>
 <layer id="3" name="Chaise" width="9" height="12">
  <data encoding="csv">
33213,33214,33215,33216,0,0,0,0,0,
33229,33230,33231,33232,0,0,0,0,0,
33245,33246,33247,33248,0,0,0,0,0,
0,0,33469,33470,0,0,33471,33472,0,
0,0,33485,33486,0,0,33487,33488,0,
0,0,33501,33502,0,0,33503,33504,0,
0,0,0,0,0,0,0,0,0,
0,0,0,0,0,0,0,0,0,
0,0,0,0,0,0,0,0,0,
0,0,0,0,0,0,0,0,0,
0,0,0,0,0,0,0,0,0,
0,0,0,0,0,0,0,0,0
</data>
 </layer>
 <layer id="2" name="Meuble" width="9" height="12">
  <properties>
   <property name="collision" type="bool" value="true"/>
  </properties>
  <data encoding="csv">
0,0,0,0,0,0,0,0,0,
0,0,0,0,0,0,0,0,0,
0,0,0,0,0,0,0,0,0,
0,0,0,33545,33546,33547,33548,0,0,
0,0,0,33561,33562,33563,33564,0,0,
0,0,0,33577,33578,33579,33580,0,0,
0,0,0,33593,33594,33595,33596,0,0,
0,0,0,0,0,0,0,0,0,
0,0,0,0,0,0,0,0,0,
0,0,0,0,0,0,0,0,0,
0,0,0,0,0,0,0,0,0,
0,0,0,0,0,0,0,0,0
</data>
 </layer>
 <objectgroup id="6" name="interactions">
  <properties>
   <property name="destination" value="Boscalis"/>
   <property name="spawnX" type="int" value="10"/>
  </properties>
  <object id="2" x="52.1868" y="180.282" width="30.0469" height="19.7677">
   <properties>
    <property name="destination" value="Boscalis"/>
    <property name="spawnX" type="int" value="790"/>
    <property name="spawnY" type="int" value="224"/>
    <property name="type" value="porte"/>
   </properties>
  </object>
 </objectgroup>
 <layer id="4" name="objet" width="9" height="12">
  <data encoding="csv">
0,0,0,0,0,0,0,36549,36550,
0,0,0,0,0,0,0,36565,36566,
0,0,0,0,0,0,0,0,0,
0,0,0,0,34416,0,0,0,0,
0,0,0,0,0,0,0,0,0,
0,0,0,0,0,34411,0,0,0,
0,0,0,0,0,0,0,0,0,
0,0,0,0,0,0,0,0,0,
0,0,0,0,0,0,0,0,0,
0,0,0,0,0,0,0,0,0,
0,0,0,31489,31494,0,0,0,0,
0,0,0,31569,31574,0,0,0,0
</data>
 </layer>
 <objectgroup id="5" name="PNJ">
  <properties>
   <property name="collision" type="bool" value="true"/>
  </properties>
  <object id="1" x="89.3501" y="124.141" width="39.5355" height="31.6284">
   <properties>
    <property name="collision" type="bool" value="true"/>
    <property name="dialogue" value="Tu devrais aller dans la grotte à coté de Boscalis, la dernière fois j'ai trouvé des ressources précieuses"/>
    <property name="sprite" value="npc4"/>
    <property name="type" value="PNJ"/>
   </properties>
  </object>
 </objectgroup>
</map>
